!!!!SEGMENT: pl-kk--kk-i-7--011_anonim--rorate-caeli.krn
!!!cenid: 16xx:801
!!!COM: Anonim
!!!COM-rismid: pe30004985
!!!CDT:
!!!CNT:
!!!OTL: Rorate caeli
!!!PDT:
!!!AGN: Sacred
!!!SMS-siglum: PL-Kk
!!!SMS-shelfmark: Kk.I.7
!!!SMS-shelfwork: 011 W
!!!SMS-variant:
!!!SMS-altvar:
!!!NIFC-rismid: 300258088
!!!URL-scan: http://repozytorium.nifc.pl/skany/pl-kk-nut--i-7
!!!ONB-nifc: UWAGA: C (skan 0008-0009, s.10-12), A (0095-0096, s.10-12), T(0172-0173, s.9-10), B(0260-0261, s.11-12). Następny utwór: Kyrie
**kern	**text	**text	**kern	**text	**text	**kern	**text	**text	**kern	**text	**text
*part4	*part4	*part4	*part3	*part3	*part3	*part2	*part2	*part2	*part1	*part1	*part1
*staff4	*staff4	*staff4	*staff3	*staff3	*staff3	*staff2	*staff2	*staff2	*staff1	*staff1	*staff1
*Ibass	*	*	*Itenor	*	*	*Ialto	*	*	*Ivox	*	*
*I"[BASSVS.]	*	*	*I"[TENOR.]	*	*	*I"[ALTVS.]	*	*	*I"[CANTVS.]	*	*
*I'B	*	*	*I'T	*	*	*I'A	*	*	*I'S	*	*
*clefF4	*	*	*clefC4	*	*	*clefC4	*	*	*clefC3	*	*
*k[]	*	*	*k[]	*	*	*k[]	*	*	*k[]	*	*
*d:	*	*	*d:	*	*	*d:	*	*	*d:	*	*
*M2/1	*	*	*M2/1	*	*	*M2/1	*	*	*M2/1	*	*
*met(c|)	*	*	*met(c|)	*	*	*met(c|)	*	*	*met(c|)	*	*
=1-	=1-	=1-	=1-	=1-	=1-	=1-	=1-	=1-	=1-	=1-	=1-
*all\right	*	*	*all\right	*	*	*all\right	*	*	*all\right	*	*
*	*	*	*lig	*	*	*	*	*	*	*	*
!LO:TX:b:B:t=Vulgare ad \nAEquales	!	!	!LO:TX:b:B:t=Vulgare ad 4 Voc(es) \naequales.	!	!	!LO:TX:a:B:t=Vulgare Off(iciu)m \nad 4. Voc aequales.	!	!	!LO:TX:b:B:t=Vulgare ad 4 Voces \nAEquales.	!	!
1C	Ro-	.	1C	Ro-	.	1G	RO-	.	2.c/	Ro-	.
!	!	!	!	!	!	!	!	!	!LO:TX:t=P:problem:kreska pseudotaktowa	!	!
.	.	.	.	.	.	.	.	.	4B/	.	.
*2\right	*	*	*	*	*	*	*	*	*	*	*
2.F\	-Ra-	.	1D	.	.	2F/	-RA-	.	2A/	.	.
*	*	*	*	*	*	*	*	*	*2\right	*	*
!	!	!	!	!	!	!LO:TX:t=P:problem:kreska pseudotaktowa	!	!	!	!	!
.	.	.	.	.	.	2D/	-te	.	2.d\	-Ra-	.
!LO:TX:t=P:problem:kreska pseudotaktowa	!	!	!	!	!	!	!	!	!	!	!
4G\	.	.	.	.	.	.	.	.	.	.	.
*	*	*	*Xlig	*	*	*	*	*	*	*	*
=2-	=2-	=2-	=2-	=2-	=2-	=2-	=2-	=2-	=2-	=2-	=2-
*	*	*	*lig	*	*	*	*	*	*	*	*
4A\	.	.	1D	-ra-	.	0d	cae-	.	.	.	.
4G\	.	.	.	.	.	.	.	.	4e\	.	.
4F\	.	.	.	.	.	.	.	.	1f	.	.
!LO:TX:t=P:problem:kreska pseudotaktowa	!	!	!	!	!	!	!	!	!	!	!
4E\	.	.	.	.	.	.	.	.	.	.	.
1D	.	.	1A	.	.	.	.	.	.	.	.
.	.	.	.	.	.	.	.	.	4e\	.	.
!	!	!	!	!	!	!	!	!	!LO:TX:t=P:problem:kreska pseudotaktowa	!	!
.	.	.	.	.	.	.	.	.	4d\	.	.
*	*	*	*Xlig	*	*	*	*	*	*	*	*
=3-	=3-	=3-	=3-	=3-	=3-	=3-	=3-	=3-	=3-	=3-	=3-
1C	.	.	1c	.	.	2G/	-li	.	4e\	.	.
.	.	.	.	.	.	.	.	.	4f\	.	.
*	*	*	*	*	*	*2\right	*ij	*	*	*	*
!	!	!	!	!	!	!LO:TX:t=P:problem:kreska pseudotaktowa	!	!	!	!	!
.	.	.	.	.	.	2G/	Ro-	.	2g\	.	.
!	!	!	!LO:TX:t=P:problem:kreska pseudotaktowa	!	!	!	!	!	!	!	!
2D/	-te	.	1A	-te	.	2d\	-ra-	.	2f\	.	.
!LO:TX:t=P:problem:kreska pseudotaktowa	!	!	!	!	!	!	!	!	!	!	!
2E\	.	.	.	.	.	2.c\	.	.	1e\	.	.
=4-	=4-	=4-	=4-	=4-	=4-	=4-	=4-	=4-	=4-	=4-	=4-
*	*	*	*lig	*	*	*	*	*	*	*	*
1F	cae-	.	1A	cae-	.	.	.	.	.	.	.
.	.	.	.	.	.	4B\	.	.	.	.	.
.	.	.	.	.	.	1A	-te	.	2d\	-te	.
!LO:TX:t=P:problem:kreska pseudotaktowa	!	!	!	!	!	!	!	!	!LO:TX:t=P:problem:kreska pseudotaktowa	!	!
1E	-li	.	1B	.	.	.	.	.	1e	.	.
!	!	!	!	!	!	!LO:TX:t=P:problem:kreska pseudotaktowa	!	!	!	!	!
.	.	.	.	.	.	2G/	cae-	.	.	.	.
*	*	*	*Xlig	*	*	*	*	*	*	*	*
=5-	=5-	=5-	=5-	=5-	=5-	=5-	=5-	=5-	=5-	=5-	=5-
*	*ij	*	*lig	*	*	*	*	*	*	*	*
2AA/	Ro-	.	1c	.	.	2A/	-li	.	2r	.	.
!	!	!	!	!	!	!	!	!	!LO:SIC:v:custos f	!	!
!LO:TX:t=P:problem:kreska pseudotaktowa	!	!	!	!	!	!	!	!	!LO:TX:t=P:problem:kreska pseudotaktowa	!	!
2C/	.	.	.	.	.	2e\	Ro-	.	2e\	cae-	.
!	!	!	!	!	!	!	!	!	!LO:LB:g=original	!	!
2D/	-ra-	.	1A	.	.	2d\	.	.	2f\	.	.
!	!	!	!	!	!	!LO:TX:t=P:problem:kreska pseudotaktowa	!	!	!	!	!
2E\	-te	.	.	.	.	2c\	.	.	1g\	.	.
*	*	*	*Xlig	*	*	*	*	*	*	*	*
=6-	=6-	=6-	=6-	=6-	=6-	=6-	=6-	=6-	=6-	=6-	=6-
!LO:TX:t=P:problem:kreska pseudotaktowa	!	!	!	!	!	!	!	!	!	!	!
!LO:SIC:v:custos GG	!	!	!	!	!	!	!	!	!	!	!
*	*	*	*lig	*	*	*	*	*	*	*	*
1D	cae-	.	1A	-li	.	1d	.	.	.	.	.
!	!	!	!	!	!	!	!	!	!LO:TX:t=P:problem:kreska pseudotaktowa	!	!
.	.	.	.	.	.	.	.	.	2f\	.	.
!LO:LB:g=original	!	!	!LO:TX:t=P:problem:kreska pseudotaktowa	!	!	!	!	!	!	!	!
2GG/	-li	.	1G	.	.	2B\	-ra-	.	2g\	-li	.
*	*Xij	*	*	*	*	*	*	*	*	*	*
!	!	!	!	!	!	!LO:TX:t=P:problem:kreska pseudotaktowa	!	!	!	!	!
2G\	de-	.	.	.	.	2B\	-te	.	2d\	.	.
*	*	*	*Xlig	*	*	*	*	*	*	*	*
=7-	=7-	=7-	=7-	=7-	=7-	=7-	=7-	=7-	=7-	=7-	=7-
*	*	*	*lig	*	*	*	*	*	*	*	*
1.F	-ſu-	.	1A	de-	.	2.c\	cae-	.	2.f\	de-	.
!	!	!	!	!	!	!	!	!	!LO:TX:t=P:problem:kreska pseudotaktowa	!	!
.	.	.	.	.	.	4B\	.	.	4g\	.	.
!	!	!	!LO:SIC:v:custos c	!	!	!	!	!	!	!	!
.	.	.	1c	.	.	2A/	-li	.	2a\	.	.
*	*	*	*	*	*	*	*Xij	*	*	*	*
!	!	!	!	!	!	!LO:TX:t=P:problem:kreska pseudotaktowa	!	!	!	!	!
2G\	.	.	.	.	.	2B\	de-	.	1g\	.	.
*	*	*	*Xlig	*	*	*	*	*	*	*	*
!	!	!	!LO:LB:g=original	!	!	!	!	!	!	!	!
=8-	=8-	=8-	=8-	=8-	=8-	=8-	=8-	=8-	=8-	=8-	=8-
!LO:TX:t=P:problem:kreska pseudotaktowa	!	!	!	!	!	!	!	!	!	!	!
*	*	*	*lig	*	*	*	*	*	*	*	*
1A	.	.	1c	.	.	2.c\	.	.	.	.	.
.	.	.	.	.	.	.	.	.	2f\	-ſu-	.
.	.	.	.	.	.	4d\	.	.	.	.	.
1G	-per	.	1B	.	.	2e\	.	.	1g	.	.
!	!	!	!	!	!	!LO:TX:t=P:problem:kreska pseudotaktowa	!	!	!	!	!
.	.	.	.	.	.	2.d\	.	.	.	.	.
*	*	*	*Xlig	*	*	*	*	*	*	*	*
=9-	=9-	=9-	=9-	=9-	=9-	=9-	=9-	=9-	=9-	=9-	=9-
*	*	*	*lig	*	*	*	*	*	*	*	*
!	!	!	!	!	!	!	!	!	!LO:TX:t=P:problem:kreska pseudotaktowa	!	!
2r	.	.	1c	.	.	.	.	.	1e	-per	.
.	.	.	.	.	.	4c\	.	.	.	.	.
!LO:TX:t=P:problem:kreska pseudotaktowa	!	!	!	!	!	!	!	!	!	!	!
2C/	de-	.	.	.	.	1c	.	.	.	.	.
2.G\	.	.	1d	.	.	.	.	.	2r	.	.
!	!	!	!	!	!	!LO:TX:t=P:problem:kreska pseudotaktowa	!	!	!	!	!
!	!	!	!	!	!	!LO:SIC:v:custos c	!	!	!	!	!
.	.	.	.	.	.	2B\	-ſu-	.	2d\	de-	.
4F\	.	.	.	.	.	.	.	.	.	.	.
*	*	*	*Xlig	*	*	*	*	*	*	*	*
!	!	!	!	!	!	!LO:LB:g=original	!	!	!	!	!
=10-	=10-	=10-	=10-	=10-	=10-	=10-	=10-	=10-	=10-	=10-	=10-
*	*	*	*lig	*	*	*	*	*	*	*	*
2E\	.	.	1c	ſu-	.	2c\	-per	.	2g\	-ſu-	.
!	!	!	!	!	!	!	!	!	!LO:TX:t=P:problem:kreska pseudotaktowa	!	!
2.F\	.	.	.	.	.	2.A/	de-	.	2f\	-p(er)	.
.	.	.	1d	.	.	.	.	.	2d\	.	.
4E\	.	.	.	.	.	4G/	.	.	.	.	.
4D/	.	.	.	.	.	4F/	.	.	1f\	.	.
!LO:TX:t=P:problem:kreska pseudotaktowa	!	!	!	!	!	!LO:TX:t=P:problem:kreska pseudotaktowa	!	!	!	!	!
4C/	.	.	.	.	.	4E/	.	.	.	.	.
*	*	*	*Xlig	*	*	*	*	*	*	*	*
=11-	=11-	=11-	=11-	=11-	=11-	=11-	=11-	=11-	=11-	=11-	=11-
*	*	*	*lig	*	*	*	*	*	*	*	*
1D	.	.	1d	per	.	2.F/	.	.	.	.	.
.	.	.	.	.	.	.	.	.	4e\	et	.
!	!	!	!	!	!	!	!	!	!LO:TX:t=P:problem:kreska pseudotaktowa	!	!
.	.	.	.	.	.	4G/	.	.	4d\	.	.
!	!	!	!LO:TX:t=P:problem:kreska pseudotaktowa	!	!	!	!	!	!	!	!
2.AA/	-ſu-	.	1c	.	.	2.A/	.	.	1.e	.	.
4BB/	.	.	.	.	.	8G/L	.	.	.	.	.
!	!	!	!	!	!	!LO:TX:t=P:problem:kreska pseudotaktowa	!	!	!	!	!
.	.	.	.	.	.	8F/J	.	.	.	.	.
*	*	*	*Xlig	*	*	*	*	*	*	*	*
=12-	=12-	=12-	=12-	=12-	=12-	=12-	=12-	=12-	=12-	=12-	=12-
1C	.	.	1G	et	.	2.E/	.	.	.	.	.
.	.	.	.	.	.	.	.	.	4d\	.	.
!	!	!	!	!	!	!	!	!	!LO:TX:t=P:problem:kreska pseudotaktowa	!	!
.	.	.	.	.	.	4F/	.	.	4c\	.	.
!LO:TX:t=P:problem:kreska pseudotaktowa	!	!	!	!	!	!	!	!	!	!	!
*	*	*	*lig	*	*	*	*	*	*	*	*
1GG	-per	.	1B	nu-	.	1G	-ſu-	.	1d	nu-	.
=13-	=13-	=13-	=13-	=13-	=13-	=13-	=13-	=13-	=13-	=13-	=13-
!	!	!	!	!	!	!LO:TX:t=P:problem:kreska pseudotaktowa	!	!	!	!	!
2r	.	.	1c	.	.	1C	-per	.	2e\	.	.
!	!	!	!	!	!	!	!	!	!LO:TX:t=P:problem:kreska pseudotaktowa	!	!
2C/	et	.	.	.	.	.	.	.	2g\	.	.
*	*	*	*Xlig	*	*	*	*	*	*	*	*
2D/	nu-	.	1A	.	.	2rF	.	.	2f\	.	.
!LO:TX:t=P:problem:kreska pseudotaktowa	!	!	!	!	!	!	!	!	!	!	!
2E\	-bes	.	.	.	.	1c\	et	.	1e\	.	.
=14-	=14-	=14-	=14-	=14-	=14-	=14-	=14-	=14-	=14-	=14-	=14-
!	!	!	!LO:TX:t=P:problem:kreska pseudotaktowa	!	!	!	!	!	!	!	!
1F	plu-	.	1A	-bes	.	.	.	.	.	.	.
.	.	.	.	.	.	4B\	.	.	2d\	-bes	.
!	!	!	!	!	!	!LO:TX:t=P:problem:kreska pseudotaktowa	!	!	!	!	!
.	.	.	.	.	.	4A/	.	.	.	.	.
!	!	!	!LO:TX:t=P:problem:kreska pseudotaktowa	!	!	!	!	!	!	!	!
*	*	*	*lig	*	*	*	*	*	*	*	*
!	!	!	!	!	!	!	!	!	!LO:TX:t=P:problem:kreska pseudotaktowa	!	!
2E\	ant	.	1B	plu-	.	2G/	-nu-	.	1e	.	.
*	*ij	*	*	*	*	*	*	*	*	*	*
2G\	et	.	.	.	.	2E/	-bes	.	.	.	.
=15-	=15-	=15-	=15-	=15-	=15-	=15-	=15-	=15-	=15-	=15-	=15-
2F\	nu-	.	1c	.	.	2A/	plu-	.	2re	.	.
!LO:TX:t=P:problem:kreska pseudotaktowa	!	!	!	!	!	!LO:TX:t=P:problem:kreska pseudotaktowa	!	!	!	!	!
2E\	-bes	.	.	.	.	2G/	-ant	.	2c/	et	.
*	*	*	*Xlig	*	*	*	*	*	*	*	*
2D/	plu-	.	1A	.	.	2F/	iu-	.	2d\	nu-	.
!	!	!	!	!	!	!	!	!	!LO:TX:t=P:problem:kreska pseudotaktowa	!	!
!	!	!	!	!	!	!	!	!	!LO:SIC:v:custos f	!	!
2C/	.	.	.	.	.	2E/	.	.	2e\	-bes	.
!	!	!	!	!	!	!	!	!	!LO:PB:g=original	!	!
=16-	=16-	=16-	=16-	=16-	=16-	=16-	=16-	=16-	=16-	=16-	=16-
!LO:TX:t=P:problem:kreska pseudotaktowa	!	!	!LO:TX:t=P:problem:kreska pseudotaktowa	!	!	!LO:TX:t=P:problem:kreska pseudotaktowa	!	!	!	!	!
1D	-ant	.	1A	-ant	.	1D	-ſtum	.	2f\	.	.
*	*Xij	*	*	*	*	*	*	*	*	*	*
.	.	.	.	.	.	.	.	.	1d	.	.
!	!	!	!LO:TX:t=P:problem:kreska pseudotaktowa	!	!	!	!	!	!	!	!
*	*	*	*lig	*	*	*	*ij	*	*	*	*
1E	iu-	.	1G	iu-	.	2rF	.	.	.	.	.
.	.	.	.	.	.	2G/	et	.	2c/	plu-	.
=17-	=17-	=17-	=17-	=17-	=17-	=17-	=17-	=17-	=17-	=17-	=17-
!LO:SIC:v:custos AA	!	!	!	!	!	!	!	!	!LO:TX:t=P:problem:kreska pseudotaktowa	!	!
1D	-ſtu(m)	.	1F	.	.	2A/	nu-	.	1d	-ant	.
!	!	!	!	!	!	!LO:TX:t=P:problem:kreska pseudotaktowa	!	!	!	!	!
.	.	.	.	.	.	2B\	.	.	.	.	.
*	*	*	*Xlig	*	*	*	*	*	*	*	*
!LO:LB:g=original	!	!	!	!	!	!	!	!	!	!	!
*	*	*	*lig	*	*	*	*	*	*	*	*
2r	.	.	1A	.	.	2c\	-bes	.	2r	.	.
*	*	*	*	*	*	*	*	*	*	*ij	*
!LO:TX:t=P:problem:kreska pseudotaktowa	!	!	!	!	!	!	!	!	!	!	!
2AA/	et	.	.	.	.	2e\	.	.	2c/	et	.
=18-	=18-	=18-	=18-	=18-	=18-	=18-	=18-	=18-	=18-	=18-	=18-
2BB/	nu-	.	1G	.	.	2d\	plu-	.	2d\	nu-	.
!	!	!	!	!	!	!	!	!	!LO:TX:t=P:problem:kreska pseudotaktowa	!	!
2C/	.	.	.	.	.	1c	-ant	.	2e\	-bes	.
*	*	*	*Xlig	*	*	*	*	*	*	*	*
*	*	*	*lig	*	*	*	*	*	*	*	*
1D	-bes	.	1F	.	.	.	.	.	1f	plu-	.
!	!	!	!	!	!	!LO:TX:t=P:problem:kreska pseudotaktowa	!	!	!	!	!
.	.	.	.	.	.	2B\	iu-	.	.	.	.
=19-	=19-	=19-	=19-	=19-	=19-	=19-	=19-	=19-	=19-	=19-	=19-
!LO:TX:t=P:problem:kreska pseudotaktowa	!	!	!	!	!	!	!	!	!	!	!
1C	plu-	.	1G	.	.	1c	-ſtum	.	1e	.	.
*	*	*	*Xlig	*	*	*	*Xij	*	*	*	*
!	!	!	!	!	!	!	!	!	!LO:TX:t=P:problem:kreska pseudotaktowa	!	!
4D\	-ant	.	1F	.	.	2.A/	nu-	.	1d	-ant	.
*	*	*	*	*	*	*	*	*	*	*Xij	*
4E\	.	.	.	.	.	.	.	.	.	.	.
4F\	.	.	.	.	.	.	.	.	.	.	.
!	!	!	!	!	!	!LO:SIC:v:custos c	!	!	!	!	!
!	!	!	!	!	!	!LO:TX:t=P:problem:kreska pseudotaktowa	!	!	!	!	!
4G\	.	.	.	.	.	4B\	.	.	.	.	.
!	!	!	!	!	!	!LO:PB:g=original	!	!	!	!	!
=20-	=20-	=20-	=20-	=20-	=20-	=20-	=20-	=20-	=20-	=20-	=20-
!	!	!	!LO:TX:t=P:problem:kreska pseudotaktowa	!	!	!	!	!	!	!	!
!	!	!	!LO:TX:t=P:problem:cezura na 1. linii	!	!	!	!	!	!	!	!
2A\	iu-	.	1F,	-ſtum	.	2c\	.	.	2c/	iu-	.
!LO:TX:t=P:problem:kreska pseudotaktowa	!	!	!	!	!	!LO:TX:t=P:problem:kreska pseudotaktowa	!	!	!	!	!
2D/	-ſtu(m)	.	.	.	.	2d\	-bes	.	2.f\	-ſtum	.
2.A\	A-	.	1F	a-	.	2c\	plu-	.	.	.	.
.	.	.	.	.	.	.	.	.	4e\	.	.
.	.	.	.	.	.	4B\	.	.	1d\	a-	.
!	!	!	!	!	!	!LO:TX:t=P:problem:kreska pseudotaktowa	!	!	!	!	!
8G\L	.	.	.	.	.	4A/	.	.	.	.	.
8F\J	.	.	.	.	.	.	.	.	.	.	.
=21-	=21-	=21-	=21-	=21-	=21-	=21-	=21-	=21-	=21-	=21-	=21-
1E	.	.	1G	-pe-	.	1G	.	.	.	.	.
!	!	!	!	!	!	!	!	!	!LO:TX:t=P:problem:kreska pseudotaktowa	!	!
.	.	.	.	.	.	.	.	.	2c/	pe-	.
2D/	-pe-	.	1A	-ri-	.	2F/	.	.	2d\	-ri-	.
!LO:TX:t=P:problem:kreska pseudotaktowa	!	!	!	!	!	!LO:TX:t=P:problem:kreska pseudotaktowa	!	!	!	!	!
2C/	-ri-	.	.	.	.	2E/	-ant	.	2e\	-a-	.
=22-	=22-	=22-	=22-	=22-	=22-	=22-	=22-	=22-	=22-	=22-	=22-
*	*	*	*lig	*	*	*	*	*	*	*	*
!	!	!	!	!	!	!	!	!	!LO:TX:t=P:problem:kreska pseudotaktowa	!	!
1D	-a-	.	1A	-a-	.	1F	iu-	.	1d	-tur	.
2GG/	-tur	.	1c	.	.	2E/	-ſtu(m)	.	2r	.	.
!	!	!	!	!	!	!LO:TX:t=P:problem:kreska pseudotaktowa	!	!	!	!	!
1F\	ter-	.	.	.	.	2A/	a-	.	2c/	a-	.
*	*	*	*Xlig	*	*	*	*	*	*	*	*
=23-	=23-	=23-	=23-	=23-	=23-	=23-	=23-	=23-	=23-	=23-	=23-
!	!	!	!LO:TX:t=P:problem:kreska pseudotaktowa	!	!	!	!	!	!	!	!
!	!	!	!LO:SIC:v:custos F	!	!	!	!	!	!	!	!
.	.	.	1G	-tur	.	2B\	-pe-	.	2d\	-pe-	.
!LO:TX:t=P:problem:kreska pseudotaktowa	!	!	!	!	!	!	!	!	!LO:TX:t=P:problem:kreska pseudotaktowa	!	!
2E\	.	.	.	.	.	1c	-ri-	.	2e\	-ri-	.
!	!	!	!LO:LB:g=original	!	!	!	!	!	!	!	!
*	*	*	*lig	*	*	*	*	*	*	*	*
1D	.	.	1F	ter-	.	.	.	.	1f	-a-	.
!	!	!	!	!	!	!LO:TX:t=P:problem:kreska pseudotaktowa	!	!	!	!	!
.	.	.	.	.	.	2B\	-a-	.	.	.	.
=24-	=24-	=24-	=24-	=24-	=24-	=24-	=24-	=24-	=24-	=24-	=24-
1C	.	.	1G	.	.	2.c\	-tur	.	2e\	-tur	.
.	.	.	.	.	.	.	.	.	2e\	ter-	.
.	.	.	.	.	.	4B\	.	.	.	.	.
*	*	*	*Xlig	*	*	*	*	*	*	*	*
!LO:TX:t=P:problem:kreska pseudotaktowa	!	!	!	!	!	!	!	!	!	!	!
*	*	*	*lig	*	*	*	*	*	*	*	*
!	!	!	!	!	!	!	!	!	!LO:TX:t=P:problem:kreska pseudotaktowa	!	!
1D	.	.	1F	.	.	4A/	ter-	.	0d	-ra	.
.	.	.	.	.	.	4G/	.	.	.	.	.
!	!	!	!	!	!	!LO:TX:t=P:problem:kreska pseudotaktowa	!	!	!	!	!
.	.	.	.	.	.	2A/	.	.	.	.	.
=25-	=25-	=25-	=25-	=25-	=25-	=25-	=25-	=25-	=25-	=25-	=25-
!	!	!	!	!	!	!LO:TX:t=P:problem:cezura na 2. linii	!	!	!	!	!
0GG	.	.	1D	.	.	2G,/	-ra	.	.	.	.
!	!	!	!	!	!	!LO:TX:t=P:problem:kreska pseudotaktowa	!	!	!	!	!
.	.	.	.	.	.	2G/	et	.	.	.	.
*	*	*	*Xlig	*	*	*	*	*	*	*	*
!	!	!	!LO:TX:t=P:problem:kreska pseudotaktowa	!	!	!	!	!	!	!	!
.	.	.	1D	-ra	.	1B-X	ger-	.	2r	.	.
.	.	.	.	.	.	.	.	.	2g\	et	.
=26-	=26-	=26-	=26-	=26-	=26-	=26-	=26-	=26-	=26-	=26-	=26-
!LO:TX:t=P:problem:kreska pseudotaktowa	!	!	!	!	!	!	!	!	!	!	!
1D	-ra	.	1F	et	.	1A	-mi-	.	2.f\	ger-	.
!	!	!	!	!	!	!	!	!	!LO:TX:t=P:problem:kreska pseudotaktowa	!	!
.	.	.	.	.	.	.	.	.	4e\	.	.
!	!	!	!	!	!	!LO:TX:t=P:problem:kreska pseudotaktowa	!	!	!	!	!
2r	.	.	1F	ger-	.	1A	-net	.	2d\	.	.
!	!	!	!	!	!	!	!	!	!LO:SIC:v:custos c	!	!
1F\	et	.	.	.	.	.	.	.	2c/	-mi-	.
!	!	!	!	!	!	!	!	!	!LO:LB:g=original	!	!
=27-	=27-	=27-	=27-	=27-	=27-	=27-	=27-	=27-	=27-	=27-	=27-
!	!	!	!	!	!	!	!	!	!LO:TX:t=P:problem:kreska pseudotaktowa	!	!
.	.	.	1G	-mi-	.	2r	.	.	1c	-net	.
!LO:TX:t=P:problem:kreska pseudotaktowa	!	!	!	!	!	!	!	!	!	!	!
2E\	ger-	.	.	.	.	1c	Sal-	.	.	.	.
*	*	*	*lig	*	*	*	*	*	*	*	*
1D	-mi-	.	1F	net	.	.	.	.	2r	.	.
*	*	*	*	*	*	*	*	*	*	*ij	*
!	!	!	!	!	!	!LO:TX:t=P:problem:kreska pseudotaktowa	!	!	!	!	!
.	.	.	.	.	.	2Bny\	-ua-	.	1f\	et	.
=28-	=28-	=28-	=28-	=28-	=28-	=28-	=28-	=28-	=28-	=28-	=28-
1C	-net	.	1G	.	.	2.c\	-to-	.	.	.	.
.	.	.	.	.	.	.	.	.	2e\	ger-	.
!	!	!	!	!	!	!LO:TX:t=P:problem:kreska pseudotaktowa	!	!	!	!	!
.	.	.	.	.	.	4B\	.	.	.	.	.
!	!	!	!	!	!	!	!	!	!LO:TX:t=P:problem:kreska pseudotaktowa	!	!
*	*	*	*Xlig	*	*	*	*	*	*	*	*
*	*	*	*lig	*	*	*	*	*	*	*	*
2.D/	ger-	.	1F	.	.	4A/	.	.	2d\	.	.
.	.	.	.	.	.	4G/	.	.	.	.	.
!	!	!	!	!	!	!LO:TX:t=P:problem:kreska pseudotaktowa	!	!	!	!	!
!	!	!	!	!	!	!LO:SIC:v:custos G	!	!	!	!	!
.	.	.	.	.	.	2A/	.	.	1d\	-mi-	.
!LO:TX:t=P:problem:kreska pseudotaktowa	!	!	!	!	!LO:LB:g=original	!	!	!	!	!	!
!LO:SIC:v:custos GG	!	!	!	!	!	!	!	!	!	!	!
4D/	-mi-	.	.	.	.	.	.	.	.	.	.
!LO:PB:g=original	!	!	!	!	!	!	!	!	!	!	!
=29-	=29-	=29-	=29-	=29-	=29-	=29-	=29-	=29-	=29-	=29-	=29-
!	!	!	!LO:TX:t=P:problem:cezura na 1. linii	!	!	!	!	!	!	!	!
!LO:TX:t=P:problem:kreska pseudotaktowa	!	!	!LO:TX:t=P:problem:kreska pseudotaktowa	!	!	!	!	!	!	!	!
1GG	-net	.	1D,	.	.	1G	.	.	.	.	.
.	.	.	.	.	.	.	.	.	4c/	.	.
!	!	!	!	!	!	!	!	!	!LO:TX:t=P:problem:kreska pseudotaktowa	!	!
.	.	.	.	.	.	.	.	.	4B/	.	.
*	*	*	*Xlig	*	*	*	*	*	*	*	*
*	*	*	*lig	*	*	*	*	*	*	*	*
2r	.	.	1D	Sal-	.	2F/	.	.	2A/	.	.
2D\	Sal-	.	.	.	.	1A\	.	.	1d\	-net	.
*	*	*	*	*	*	*	*	*	*	*Xij	*
=30-	=30-	=30-	=30-	=30-	=30-	=30-	=30-	=30-	=30-	=30-	=30-
2D\	-ua-	.	1F	.	.	.	.	.	.	.	.
1F	-to-	.	.	.	.	4G/	.	.	4c/	Sal-	.
!	!	!	!	!	!	!LO:TX:t=P:problem:kreska pseudotaktowa	!	!	!LO:TX:t=P:problem:kreska pseudotaktowa	!	!
.	.	.	.	.	.	4F/	.	.	4B/	.	.
*	*	*	*Xlig	*	*	*	*	*	*	*	*
*	*	*	*lig	*	*	*	*	*	*	*	*
.	.	.	1C	-ua-	.	2G/	.	.	1c	.	.
!LO:TX:t=P:problem:kreska pseudotaktowa	!	!	!	!	!	!	!	!	!	!	!
2E\	.	.	.	.	.	2c\	-rem	.	.	.	.
=31-	=31-	=31-	=31-	=31-	=31-	=31-	=31-	=31-	=31-	=31-	=31-
!	!	!	!	!	!	!	!	!	!LO:TX:t=P:problem:kreska pseudotaktowa	!	!
1D	.	.	1F	.	.	2.d\	Sal-	.	1A	-ua-	.
!	!	!	!	!	!	!LO:TX:t=P:problem:kreska pseudotaktowa	!	!	!	!	!
.	.	.	.	.	.	4c\	.	.	.	.	.
*	*	*	*Xlig	*	*	*	*	*	*	*	*
!	!	!	!LO:TX:b:t=Tempore Paschali	!	!	!	!	!	!	!	!
2GG/	.	.	1D	.	.	2B\	.	.	2B/	-to-	.
!LO:TX:t=P:problem:kreska pseudotaktowa	!	!	!	!	!	!	!	!	!	!	!
2AA/	.	.	.	.	.	1A\	-ua-	.	2c/	.	.
=32-	=32-	=32-	=32-	=32-	=32-	=32-	=32-	=32-	=32-	=32-	=32-
!	!	!	!LO:TX:t=P:problem:cezura na 2. linii	!	!	!	!	!	!	!	!
1BB-X	.	.	1D,	.	.	.	.	.	1d	.	.
.	.	.	.	.	.	2G/	-to-	.	.	.	.
!	!	!	!	!	!	!LO:TX:t=P:problem:kreska pseudotaktowa	!	!	!	!	!
!	!	!	!	!	!	!LO:TX:b:t=t(em)p(or)e Paschali	!	!	!	!	!
2AA/	.	.	1E	-to-	Al-	0A	-rem	.	2c/	-rem	.
*	*	*	*	*	*	*	*	*	*	*ij	*
!LO:TX:t=P:problem:kreska pseudotaktowa	!	!	!	!	!	!	!	!	!LO:TX:t=P:problem:kreska pseudotaktowa	!	!
2C/	.	.	.	.	.	.	.	.	2.e\	Sal-	.
=33-	=33-	=33-	=33-	=33-	=33-	=33-	=33-	=33-	=33-	=33-	=33-
1D	.	.	1F	.	-le-	.	.	.	.	.	.
.	.	.	.	.	.	.	.	.	4d\	.	.
.	.	.	.	.	.	.	.	.	1d	-ua-	.
!LO:TX:t=P:problem:kreska pseudotaktowa	!	!	!	!	!	!	!	!	!	!	!
1AA	-rem	.	1E	.	-lu-	2rF	.	.	.	.	.
*	*	*	*	*	*	*	*ij	*	*	*	*
!	!	!	!	!	!	!	!	!	!LO:TX:t=P:problem:kreska pseudotaktowa	!	!
.	.	.	.	.	.	2.A/	Sal-	Al-	2c/	-to-	.
=34-	=34-	=34-	=34-	=34-	=34-	=34-	=34-	=34-	=34-	=34-	=34-
!	!	!	!	!	!	!	!	!	!LO:TX:t=P:problem:cezura na 3. linii	!	!
2r	.	.	[0Dl;	-rem	-ia	.	.	.	2d,\	-rem	.
*	*	*	*	*	*	*	*	*	*	*Xij	*
.	.	.	.	.	.	4G/	.	.	.	.	.
!LO:TX:b:t=T(em)p(or)e Pasch(ali)	!	!	!	!	!	!	!	!	!	!	!
2.D/	Sal-	Al-	.	.	.	4F/	.	.	2.f\	Sal-	Al-
!	!	!	!	!	!	!LO:TX:t=P:problem:kreska pseudotaktowa	!	!	!	!	!
.	.	.	.	.	.	4E/	.	.	.	.	.
.	.	.	.	.	.	2D/	.	.	.	.	.
4C/	.	.	.	.	.	.	.	.	4e\	.	.
4BBny/	.	.	.	.	.	1G/	.	.	4d\	.	.
!LO:TX:t=P:problem:kreska pseudotaktowa	!	!	!	!	!	!	!	!	!LO:TX:t=P:problem:kreska pseudotaktowa	!	!
4AA/	.	.	.	.	.	.	.	.	4c/	.	.
=35-	=35-	=35-	=35-	=35-	=35-	=35-	=35-	=35-	=35-	=35-	=35-
2GG/	.	.	0D_	.	.	.	.	.	2B-X/	.	.
!	!	!	!	!	!	!LO:TX:t=P:problem:kreska pseudotaktowa	!	!	!	!	!
2FF/	-ua-	-le-	.	.	.	2A/	-ua-	.	2A/	-ua-	-le-
1GG	-to-	-lu-	.	.	.	2B-X\	-to-	-le-	2G/	-to-	-lu-
.	.	.	.	.	.	2G/	.	-lu-	2B-/	.	.
=36-	=36-	=36-	=36-	=36-	=36-	=36-	=36-	=36-	=36-	=36-	=36-
!LO:TX:t=P:problem:kreska pseudotaktowa	!	!	!	!	!	!LO:TX:t=P:problem:kreska pseudotaktowa	!	!	!	!	!
0D;	-rem.	-ia.	0D]	.	.	0F#X;	-rem	-ia.	0A;	-rem.	-ia.
*	*	*	*	*	*	*	*Xij	*	*	*	*
!	!	!	!	!	!	!LO:LB:g=original	!	!	!LO:LB:g=original	!	!
=37||	=37||	=37||	=37||	=37||	=37||	=37||	=37||	=37||	=37||	=37||	=37||
*M2/1	*	*	*M2/1	*	*	*M2/1	*	*	*M2/1	*	*
*met(c|)	*	*	*met(c|)	*	*	*met(c|)	*	*	*met(c|)	*	*
!	!	!	!	!	!	!	!	!	!LO:TX:t=P:problem:kreska pseudotaktowa	!	!
2r	.	.	1F	Be-	.	1F	Be-	.	0r	.	.
1F	BE-	.	.	.	.	.	.	.	.	.	.
*	*	*	*lig	*	*	*	*	*	*	*	*
.	.	.	1G	-ne-	.	1C	-ne-	.	.	.	.
!LO:TX:t=P:problem:kreska pseudotaktowa	!	!	!	!	!	!	!	!	!	!	!
2E\	-ne-	.	.	.	.	.	.	.	.	.	.
=38-	=38-	=38-	=38-	=38-	=38-	=38-	=38-	=38-	=38-	=38-	=38-
2D/	-di-	.	1A	.	.	2.F/	-di-	.	2r	.	.
1D	-xi-	.	.	.	.	.	.	.	1f	Be-	.
!	!	!	!	!	!	!LO:TX:t=P:problem:kreska pseudotaktowa	!	!	!	!	!
.	.	.	.	.	.	4E/	.	.	.	.	.
*	*	*	*Xlig	*	*	*	*	*	*	*	*
.	.	.	1A	-di-	.	2D/	.	.	.	.	.
!LO:TX:t=P:problem:kreska pseudotaktowa	!	!	!	!	!	!	!	!	!LO:TX:t=P:problem:kreska pseudotaktowa	!	!
2C/	.	.	.	.	.	2E/	.	.	2e\	-ne-	.
=39-	=39-	=39-	=39-	=39-	=39-	=39-	=39-	=39-	=39-	=39-	=39-
!LO:TX:t=P:problem:kreska pseudotaktowa	!	!	!	!	!	!	!	!	!	!	!
!LO:SIC:v:custos AA	!	!	!	!	!	!	!	!	!	!	!
1D	ſti	.	1A	-xi-	.	1F	-xi-	.	2d\	-di-	.
.	.	.	.	.	.	.	.	.	1d	-xi-	.
!	!	!	!LO:TX:t=P:problem:kreska pseudotaktowa	!	!	!LO:TX:t=P:problem:kreska pseudotaktowa	!	!	!	!	!
!LO:LB:g=original	!	!	!LO:SIC:v:custos A	!	!	!	!	!	!	!	!
2.AA/	Do-	.	1A	-ſti	.	1E	-ſti	.	.	.	.
!	!	!	!	!	!	!	!	!	!LO:TX:t=P:problem:kreska pseudotaktowa	!	!
.	.	.	.	.	.	.	.	.	2c/	.	.
!LO:TX:t=P:problem:kreska pseudotaktowa	!	!	!	!	!	!	!	!	!	!	!
4AA/	-mi-	.	.	.	.	.	.	.	.	.	.
!	!	!	!LO:LB:g=original	!	!	!	!	!	!	!	!
=40-	=40-	=40-	=40-	=40-	=40-	=40-	=40-	=40-	=40-	=40-	=40-
!LO:TX:t=P:problem:kreska pseudotaktowa	!	!	!	!	!	!	!	!	!	!	!
1D	-ne	.	1A	Do-	.	2.A/	Do-	.	1d	-ſti	.
.	.	.	.	.	.	4A/	-mi-	.	.	.	.
!	!	!	!	!	!	!LO:TX:t=P:problem:kreska pseudotaktowa	!	!	!	!	!
2r	.	.	1A	-mi-	.	1D	-ne	.	2f\	Do-	.
!LO:TX:t=P:problem:kreska pseudotaktowa	!	!	!	!	!	!	!	!	!LO:TX:t=P:problem:kreska pseudotaktowa	!	!
2F\	ter-	.	.	.	.	.	.	.	2d\	-mi-	.
=41-	=41-	=41-	=41-	=41-	=41-	=41-	=41-	=41-	=41-	=41-	=41-
!	!	!	!LO:TX:t=P:problem:kreska pseudotaktowa	!	!	!	!	!	!	!	!
2E\	.	.	1A	-ne	.	2rF	.	.	2c/	-ne	.
!LO:TX:t=P:problem:kreska pseudotaktowa	!	!	!	!	!	!	!	!	!	!	!
2D/	.	.	.	.	.	2D/	ter-	.	2f\	Do-	.
*	*	*	*lig	*	*	*	*	*	*	*	*
2C/	ram	.	1A	ter-	.	2E/	-ra(m)	.	2e\	.	.
!	!	!	!	!	!	!	!	!	!LO:TX:t=P:problem:kreska pseudotaktowa	!	!
2.F\	tu-	.	.	.	.	4F/	.	.	2d\	-mi-	.
!	!	!	!	!	!	!LO:TX:t=P:problem:kreska pseudotaktowa	!	!	!	!	!
.	.	.	.	.	.	4G/	.	.	.	.	.
=42-	=42-	=42-	=42-	=42-	=42-	=42-	=42-	=42-	=42-	=42-	=42-
.	.	.	1c	.	.	4A/	tu-	.	2c/	-ne	.
4E\	.	.	.	.	.	4G/	.	.	.	.	.
!LO:TX:t=P:problem:kreska pseudotaktowa	!	!	!	!	!	!LO:TX:t=P:problem:kreska pseudotaktowa	!	!	!LO:TX:t=P:problem:kreska pseudotaktowa	!	!
2C/	am	.	.	.	.	2E/	.	.	2e\	ter-	.
*	*	*	*Xlig	*	*	*	*	*	*	*	*
!	!	!	!LO:TX:t=P:problem:kreska pseudotaktowa	!	!	!	!	!	!	!	!
2.D/	ter-	.	1A	-ram	.	1F	-am	.	4d\	-ra(m)	.
.	.	.	.	.	.	.	.	.	4e\	.	.
.	.	.	.	.	.	.	.	.	4f\	.	.
!	!	!	!	!	!	!	!	!	!LO:TX:t=P:problem:kreska pseudotaktowa	!	!
4E\	.	.	.	.	.	.	.	.	4g\	.	.
=43-	=43-	=43-	=43-	=43-	=43-	=43-	=43-	=43-	=43-	=43-	=43-
!LO:TX:t=P:problem:kreska pseudotaktowa	!	!	!	!	!	!	!	!	!	!	!
*	*	*	*lig	*	*	*	*	*	*	*	*
1F	.	.	1A	tu-	.	1D	a-	.	4a\	ter-	.
.	.	.	.	.	.	.	.	.	4g\	.	.
.	.	.	.	.	.	.	.	.	2f\	.	.
2C/	-ram	.	1G	.	.	2E/	-uer-	.	2e\	.	.
!	!	!	!	!	!	!LO:TX:t=P:problem:kreska pseudotaktowa	!	!	!	!	!
2D/	.	.	.	.	.	2F/	.	.	1d\	-ra(m)	.
*	*	*	*Xlig	*	*	*	*	*	*	*	*
=44-	=44-	=44-	=44-	=44-	=44-	=44-	=44-	=44-	=44-	=44-	=44-
*	*	*	*lig	*	*	*	*	*	*	*	*
1E	tu-	.	1G	-am	.	1G	-ti-	.	.	.	.
!	!	!	!	!	!	!	!	!	!LO:TX:t=P:problem:kreska pseudotaktowa	!	!
.	.	.	.	.	.	.	.	.	2c/	tu-	.
!	!	!	!LO:TX:t=P:problem:cezura na 1. polu	!	!	!	!	!	!	!	!
!LO:TX:t=P:problem:kreska pseudotaktowa	!	!	!LO:TX:t=P:problem:kreska pseudotaktowa	!	!	!LO:TX:t=P:problem:kreska pseudotaktowa	!	!	!	!	!
1D	-am	.	1A,	.	.	1F	-ſti	.	2d\	-am	.
.	.	.	.	.	.	.	.	.	2f\	a-	.
*	*	*	*Xlig	*	*	*	*	*	*	*	*
=45-	=45-	=45-	=45-	=45-	=45-	=45-	=45-	=45-	=45-	=45-	=45-
*	*	*	*lig	*	*	*	*	*	*	*	*
2r	.	.	1G	a-	.	2rF	.	.	4e\	-uer-	.
.	.	.	.	.	.	.	.	.	4d\	.	.
!	!	!	!	!	!	!LO:TX:t=P:problem:kreska pseudotaktowa	!	!	!	!	!
2E\	a-	.	.	.	.	2C/	a-	.	1c	.	.
2F\	-uer-	.	1F	.	.	2D/	-uer-	.	.	.	.
!LO:TX:t=P:problem:kreska pseudotaktowa	!	!	!	!	!	!	!	!	!LO:TX:t=P:problem:kreska pseudotaktowa	!	!
!	!	!	!	!	!	!	!	!	!LO:SIC:v:custos c	!	!
2D/	-ti-	.	.	.	.	1F/	-ti-	.	2B/	.	.
*	*	*	*Xlig	*	*	*	*	*	*	*	*
!	!	!	!	!	!	!	!	!	!LO:LB:g=original	!	!
=46-	=46-	=46-	=46-	=46-	=46-	=46-	=46-	=46-	=46-	=46-	=46-
*	*	*	*lig	*	*	*	*	*	*	*	*
1C	-ſti	.	1G	-uer-	.	.	.	.	4c/	ti-	.
.	.	.	.	.	.	.	.	.	4d\	.	.
!	!	!	!	!	!	!LO:TX:t=P:problem:kreska pseudotaktowa	!	!	!	!	!
.	.	.	.	.	.	2E/	-ſti	.	2e\	.	.
*	*	*	*	*	*	*	*ij	*	*	*	*
!	!	!	!	!	!	!	!	!	!LO:TX:t=P:problem:kreska pseudotaktowa	!	!
2r	.	.	1A	.	.	2D/	a-	.	1f	-ſti	.
!	!	!	!	!	!	!LO:TX:t=P:problem:kreska pseudotaktowa	!	!	!	!	!
!	!	!	!	!	!	!LO:SIC:v:custos F	!	!	!	!	!
*	*ij	*	*	*	*	*	*	*	*	*	*
2D/	a-	.	.	.	.	2D/	-uer-	.	.	.	.
!LO:TX:t=P:problem:kreska pseudotaktowa	!	!	!	!	!	!	!	!	!	!	!
*	*	*	*Xlig	*	*	*	*	*	*	*	*
!	!	!	!	!	!	!LO:LB:g=original	!	!	!	!	!
=47-	=47-	=47-	=47-	=47-	=47-	=47-	=47-	=47-	=47-	=47-	=47-
2D/	-uer-	.	1A	-ti-	.	2F/	.	.	2r	.	.
!	!	!	!	!	!	!	!	!	!LO:TX:t=P:problem:kreska pseudotaktowa	!	!
2D/	-ti-	.	.	.	.	2F/	-ti-	.	2d\	a-	.
!LO:TX:t=P:problem:kreska pseudotaktowa	!	!	!LO:TX:t=P:problem:kreska pseudotaktowa	!	!	!LO:TX:t=P:problem:kreska pseudotaktowa	!	!	!	!	!
1F	-ſti	.	1A	-ſti	.	0D	-ſti	.	2d\	-uer-	.
*	*Xij	*	*	*	*	*	*Xij	*	*	*	*
.	.	.	.	.	.	.	.	.	2d\	-ti-	.
=48-	=48-	=48-	=48-	=48-	=48-	=48-	=48-	=48-	=48-	=48-	=48-
!	!	!	!	!	!	!	!	!	!LO:TX:t=P:problem:kreska pseudotaktowa	!	!
2r	.	.	1A	ca-	.	.	.	.	1f	-ſti	.
!LO:TX:t=P:problem:kreska pseudotaktowa	!	!	!	!	!	!	!	!	!	!	!
2D/	ca-	.	.	.	.	.	.	.	.	.	.
1D	-pti-	.	1A	-pti-	.	2rF	.	.	2r	.	.
.	.	.	.	.	.	2F/	ca-	.	2d\	ca-	.
=49-	=49-	=49-	=49-	=49-	=49-	=49-	=49-	=49-	=49-	=49-	=49-
*	*	*	*lig	*	*	*	*	*	*	*	*
2D/	-ui-	.	1A	-ui-	.	2F/	-pti-	.	2d\	-pti-	.
!	!	!	!	!	!	!LO:TX:t=P:problem:kreska pseudotaktowa	!	!	!LO:TX:t=P:problem:kreska pseudotaktowa	!	!
1D	-ta-	.	.	.	.	2D/	-ui-	.	2f\	-ui-	.
.	.	.	1B	.	.	2F/	-ta-	.	2d\	-ta-	.
1E\	.	.	.	.	.	1G/	.	.	4g\	.	.
!	!	!	!	!	!	!	!	!	!LO:TX:t=P:problem:kreska pseudotaktowa	!	!
.	.	.	.	.	.	.	.	.	4f\	.	.
*	*	*	*Xlig	*	*	*	*	*	*	*	*
=50-	=50-	=50-	=50-	=50-	=50-	=50-	=50-	=50-	=50-	=50-	=50-
*	*	*	*lig	*	*	*	*	*	*	*	*
.	.	.	1c	.	.	.	.	.	4e\	.	.
.	.	.	.	.	.	.	.	.	4d\	.	.
1F	.	.	.	.	.	1A	-tem	.	2.c/	.	.
.	.	.	1A	.	.	.	.	.	.	.	.
.	.	.	.	.	.	.	.	.	4A/	-tem	.
!LO:TX:t=P:problem:kreska pseudotaktowa	!	!	!	!	!	!LO:TX:t=P:problem:kreska pseudotaktowa	!	!	!	!	!
!LO:SIC:v:custos E	!	!	!	!	!	!	!	!	!	!	!
2D/	-tem	.	.	.	.	2F/	Ja-	.	1d\	Ja-	.
*	*	*	*Xlig	*	*	*	*	*	*	*	*
!LO:LB:g=original	!	!	!	!	!	!	!	!	!	!	!
=51-	=51-	=51-	=51-	=51-	=51-	=51-	=51-	=51-	=51-	=51-	=51-
!LO:TX:t=P:problem:kreska pseudotaktowa	!	!	!	!	!	!	!	!	!	!	!
1E	Ja-	.	1G	-ta-	.	1G	.	.	.	.	.
!	!	!	!	!	!	!	!	!	!LO:TX:t=P:problem:kreska pseudotaktowa	!	!
.	.	.	.	.	.	.	.	.	2c/	.	.
!	!	!	!LO:TX:t=P:problem:kreska pseudotaktowa	!	!	!	!	!	!	!	!
2.D/	.	.	1F	-te(m)	.	2.A/	-cob	.	2d\	-cob	.
*	*	*	*	*	*	*	*	*	*	*ij	*
!	!	!	!	!	!	!	!	!	!LO:TX:t=P:problem:kreska pseudotaktowa	!	!
.	.	.	.	.	.	.	.	.	2f\	Ja-	.
!LO:TX:t=P:problem:kreska pseudotaktowa	!	!	!	!	!	!LO:TX:t=P:problem:kreska pseudotaktowa	!	!	!	!	!
4C/	.	.	.	.	.	4B\	.	.	.	.	.
=52-	=52-	=52-	=52-	=52-	=52-	=52-	=52-	=52-	=52-	=52-	=52-
*	*	*	*lig	*	*	*	*	*	*	*	*
2AA/	.	.	1F	Ja-	.	2c\	Ja-	.	2e\	.	.
2FF/	.	.	.	.	.	2A/	.	.	1d	.	.
2GG/	.	.	1E	.	.	2B-X\	.	.	.	.	.
2AA/	.	.	.	.	.	2A/	-cob	.	2c/	.	.
!LO:TX:t=P:problem:kreska pseudotaktowa	!	!	!	!	!	!	!	!	!	!	!
*	*	*	*Xlig	*	*	*	*	*	*	*	*
=53-	=53-	=53-	=53-	=53-	=53-	=53-	=53-	=53-	=53-	=53-	=53-
!	!	!	!LO:TX:t=P:problem:kreska pseudotaktowa	!	!	!	!	!	!	!	!
0Dl;<	-cob	.	0Dl	-cob.	.	0Al;<	.	.	0dl	-cob	.
*	*	*	*	*	*	*	*	*	*	*Xij	*
!	!	!	!LO:PB:g=original	!	!	!	!	!	!LO:LB:g=original	!	!
=54||	=54||	=54||	=54||	=54||	=54||	=54||	=54||	=54||	=54||	=54||	=54||
*M2/1	*	*	*M2/1	*	*	*M2/1	*	*	*M2/1	*	*
*met(c|)	*	*	*met(c|)	*	*	*met(c|)	*	*	*met(c|)	*	*
!	!	!	!	!	!	!	!	!	!LO:TX:t=P:problem:kreska pseudotaktowa	!	!
1F	Glo-	.	1F	Glo-	.	1c	Glo-	.	0r	.	.
*	*	*	*lig	*	*	*	*	*	*	*	*
2E\	-ri-	.	1G	-ri-	.	2c\	-ri-	.	.	.	.
!LO:TX:t=P:problem:kreska pseudotaktowa	!	!	!	!	!	!LO:TX:t=P:problem:kreska pseudotaktowa	!	!	!	!	!
2C/	-a	.	.	.	.	2e\	-a	.	.	.	.
=55-	=55-	=55-	=55-	=55-	=55-	=55-	=55-	=55-	=55-	=55-	=55-
1D	Pa-	.	1A	.	.	1d	Pa-	.	1f	Glo-	.
*	*	*	*Xlig	*	*	*	*	*	*	*	*
!LO:TX:t=P:problem:kreska pseudotaktowa	!	!	!LO:TX:t=P:problem:kreska pseudotaktowa	!	!	!	!	!	!	!	!
1AA	-tri	.	1A	-a	.	4c\	.	.	2e\	-ri-	.
.	.	.	.	.	.	4B\	.	.	.	.	.
!	!	!	!	!	!	!	!	!	!LO:TX:t=P:problem:kreska pseudotaktowa	!	!
.	.	.	.	.	.	4A/	.	.	2c/	-a	.
!	!	!	!	!	!	!LO:TX:t=P:problem:kreska pseudotaktowa	!	!	!	!	!
.	.	.	.	.	.	4G/	.	.	.	.	.
=56-	=56-	=56-	=56-	=56-	=56-	=56-	=56-	=56-	=56-	=56-	=56-
1D	Pa-	.	1A	Pa-	.	1F	.	.	1d	Pa-	.
!LO:TX:a:t=a	!	!	!	!	!	!LO:TX:t=P:problem:kreska pseudotaktowa	!	!	!	!	!
1AA	-tri	.	1A	-tri	.	1E	-tri	.	1c	-tri	.
=57-	=57-	=57-	=57-	=57-	=57-	=57-	=57-	=57-	=57-	=57-	=57-
!LO:TX:a:t=a	!	!	!	!	!	!	!	!	!	!	!
!LO:TX:t=P:problem:kreska pseudotaktowa	!	!	!LO:TX:t=P:problem:kreska pseudotaktowa	!	!	!LO:SIC:v:custos F	!	!	!LO:TX:t=P:problem:kreska pseudotaktowa	!	!
1AA	et	.	1A	et	.	1E	et	.	1c	et	.
!	!	!	!	!	!	!LO:LB:g=original	!	!	!	!	!
1.D	Fi-	.	1A	Fi-	.	1.F	Fi-	.	1.d	Fi-	.
=58-	=58-	=58-	=58-	=58-	=58-	=58-	=58-	=58-	=58-	=58-	=58-
.	.	.	1A	-li-	.	.	.	.	.	.	.
!LO:TX:t=P:problem:kreska pseudotaktowa	!	!	!	!	!	!LO:TX:t=P:problem:kreska pseudotaktowa	!	!	!	!	!
2D/	-li-	.	.	.	.	2F/	-li-	.	2d\	-li-	.
!	!	!	!LO:TX:t=P:problem:kreska pseudotaktowa	!	!	!LO:TX:t=P:problem:cezura na 1. linii	!	!	!	!	!
2AA/	-o	.	1A	-o	.	2E,/	-o	.	2c/	-o	.
!	!	!	!	!	!	!LO:TX:t=P:problem:kreska pseudotaktowa	!	!	!LO:TX:t=P:problem:kreska pseudotaktowa	!	!
2D/	et	.	.	.	.	2D/	et	.	2f\	et	.
=59-	=59-	=59-	=59-	=59-	=59-	=59-	=59-	=59-	=59-	=59-	=59-
2C/	Spi-	.	1A	et	.	2E/	Spi-	.	2e\	Spi-	.
2.F\	-ri-	.	.	.	.	4D/	-ri-	.	2.a\	-ri-	.
!	!	!	!	!	!	!LO:TX:t=P:problem:kreska pseudotaktowa	!	!	!	!	!
.	.	.	.	.	.	4E/	.	.	.	.	.
.	.	.	1A	Spi-	.	4F/	.	.	.	.	.
4E\	.	.	.	.	.	4G/	.	.	4g\	-tu-	.
!LO:TX:t=P:problem:kreska pseudotaktowa	!	!	!	!	!	!	!	!	!LO:TX:t=P:problem:kreska pseudotaktowa	!	!
2D/	.	.	.	.	.	4A/	.	.	2f\	-i	.
.	.	.	.	.	.	4B/	.	.	.	.	.
=60-	=60-	=60-	=60-	=60-	=60-	=60-	=60-	=60-	=60-	=60-	=60-
*	*	*	*lig	*	*	*	*	*	*	*	*
2C/	.	.	1A	-ri-	.	2c\	.	.	2e\	.	.
2D/	tu-	.	.	.	.	1A	.	.	2.f\	.	.
2.AA/	-i	.	1c	.	.	.	.	.	.	.	.
.	.	.	.	.	.	.	.	.	4e\	.	.
!	!	!	!	!	!	!	!	!	!LO:TX:t=P:problem:kreska pseudotaktowa	!	!
.	.	.	.	.	.	4G/	.	.	2.e\	.	.
!LO:TX:t=P:problem:kreska pseudotaktowa	!	!	!	!	!	!LO:TX:t=P:problem:kreska pseudotaktowa	!	!	!	!	!
!LO:SIC:v:custos C	!	!	!	!	!	!	!	!	!	!	!
4BB/	.	.	.	.	.	4F/	.	.	.	.	.
*	*	*	*Xlig	*	*	*	*	*	*	*	*
=61-	=61-	=61-	=61-	=61-	=61-	=61-	=61-	=61-	=61-	=61-	=61-
2C/	.	.	1A	-tu-	.	2E/	-tu-	.	.	.	.
.	.	.	.	.	.	.	.	.	4d\	.	.
!LO:TX:t=P:problem:kreska pseudotaktowa	!	!	!	!	!	!	!	!	!	!	!
2D/	.	.	.	.	.	2F/	-i	.	1d	.	.
!	!	!	!LO:TX:t=P:problem:kreska pseudotaktowa	!	!	!	!	!	!	!	!
1AA	ſan-	.	1A	-i	.	1E	San-	.	.	.	.
!	!	!	!	!	!	!	!	!	!LO:TX:t=P:problem:kreska pseudotaktowa	!	!
.	.	.	.	.	.	.	.	.	2c/	.	.
=62-	=62-	=62-	=62-	=62-	=62-	=62-	=62-	=62-	=62-	=62-	=62-
!LO:TX:t=P:problem:kreska pseudotaktowa	!	!	!	!	!	!	!	!	!	!	!
*	*	*	*lig	*	*	*	*	*	*	*	*
!	!	!	!	!	!	!LO:TX:t=P:problem:kreska pseudotaktowa	!	!	!	!	!
1D	.	.	1A	San-	.	1F	-cto	.	1d	.	.
2E\	.	.	1G	.	.	2rF	.	.	2g\	San-	.
4D/	.	.	.	.	.	2C/	San-	.	4f\	.	.
!	!	!	!	!	!	!	!	!	!LO:TX:t=P:problem:kreska pseudotaktowa	!	!
4C/	.	.	.	.	.	.	.	.	4e\	.	.
*	*	*	*Xlig	*	*	*	*	*	*	*	*
=63-	=63-	=63-	=63-	=63-	=63-	=63-	=63-	=63-	=63-	=63-	=63-
*	*	*	*lig	*	*	*	*	*	*	*	*
1BB	.	.	1G	-cto	.	1D	.	.	1d	.	.
!LO:TX:t=P:problem:kreska pseudotaktowa	!	!	!LO:TX:t=P:problem:kreska pseudotaktowa	!	!	!LO:TX:t=P:problem:kreska pseudotaktowa	!	!	!	!	!
1AA	-cto	.	1A	.	.	1E	-cto	.	2c/	-cto	.
!	!	!	!	!	!	!	!	!	!LO:TX:t=P:problem:kreska pseudotaktowa	!	!
.	.	.	.	.	.	.	.	.	2c/	Si-	.
*	*	*	*Xlig	*	*	*	*	*	*	*	*
=64-	=64-	=64-	=64-	=64-	=64-	=64-	=64-	=64-	=64-	=64-	=64-
*	*	*	*lig	*	*	*	*	*	*	*	*
2r	.	.	1G	Si-	.	2rF	.	.	2d\	-cut	.
!	!	!	!	!	!	!	!	!	!LO:TX:t=P:problem:kreska pseudotaktowa	!	!
!	!	!	!	!	!	!	!	!	!LO:SIC:v:custos d	!	!
2E\	ſic-	.	.	.	.	2C/	Si-	.	2e\	e-	.
!	!	!	!	!	!	!	!	!	!LO:LB:g=original	!	!
!	!	!	!	!	!	!	!	!	!LO:TX:t=P:problem:kreska pseudotaktowa	!	!
2F\	-cut	.	1F	.	.	2D/	-cut	.	1d	-rat	.
!LO:TX:t=P:problem:kreska pseudotaktowa	!	!	!	!	!	!	!	!	!	!	!
2D/	e-	.	.	.	.	1F/	e-	.	.	.	.
*	*	*	*Xlig	*	*	*	*	*	*	*	*
=65-	=65-	=65-	=65-	=65-	=65-	=65-	=65-	=65-	=65-	=65-	=65-
!LO:TX:t=P:problem:kreska pseudotaktowa	!	!	!	!	!	!	!	!	!	!	!
*	*	*	*lig	*	*	*	*	*	*	*	*
1C	-rat	.	1G	-cut	.	.	.	.	2r	.	.
*	*	*	*	*	*	*	*	*	*	*ij	*
!	!	!	!	!	!	!LO:TX:t=P:problem:kreska pseudotaktowa	!	!	!LO:TX:t=P:problem:kreska pseudotaktowa	!	!
.	.	.	.	.	.	2E/	.	.	2e\	Si-	.
!	!	!	!LO:TX:t=P:problem:kreska pseudotaktowa	!	!	!	!	!	!	!	!
2r	.	.	1A	.	.	2D/	-rat	.	2f\	.	.
*	*ij	*	*	*	*	*	*ij	*	*	*	*
!LO:TX:t=P:problem:kreska pseudotaktowa	!	!	!	!	!	!	!	!	!LO:TX:t=P:problem:kreska pseudotaktowa	!	!
2D/	ſic-	.	.	.	.	2F/	Si-	.	2d\	.	.
*	*	*	*Xlig	*	*	*	*	*	*	*	*
=66-	=66-	=66-	=66-	=66-	=66-	=66-	=66-	=66-	=66-	=66-	=66-
2.AA/	-cut	.	1A	e-	.	2E/	-cut	.	2c/	.	.
!	!	!	!	!	!	!LO:TX:t=P:problem:kreska pseudotaktowa	!	!	!	!	!
.	.	.	.	.	.	2.A/	e-	.	2.e\	.	.
4BB/	.	.	.	.	.	.	.	.	.	.	.
!	!	!	!LO:TX:t=P:problem:kreska pseudotaktowa	!	!	!	!	!	!	!	!
2C/	e-	.	1A	-rat	.	.	.	.	.	.	.
.	.	.	.	.	.	4G/	.	.	4d\	-cut	.
!LO:TX:t=P:problem:kreska pseudotaktowa	!	!	!	!	!	!	!	!	!	!	!
2D/	.	.	.	.	.	2F/	.	.	1d\	e-	.
=67-	=67-	=67-	=67-	=67-	=67-	=67-	=67-	=67-	=67-	=67-	=67-
!LO:TX:t=P:problem:kreska pseudotaktowa	!	!	!LO:SIC:v:custos A	!	!	!LO:TX:t=P:problem:kreska pseudotaktowa	!	!	!	!	!
1AA	-rat	.	1A	in	.	1E	.	.	.	.	.
*	*Xij	*	*	*	*	*	*	*	*	*	*
!	!	!	!	!	!	!	!	!	!LO:TX:t=P:problem:kreska pseudotaktowa	!	!
.	.	.	.	.	.	.	.	.	2c/	.	.
!	!	!	!LO:LB:g=original	!	!	!LO:SIC:v:t=custos E	!	!	!	!	!
2r	.	.	1A	prin-	.	2D/	.	.	2d\	-rat	.
*	*	*	*	*	*	*	*	*	*	*Xij	*
!	!	!	!	!	!	!LO:LB:g=original	!	!	!	!	!
1AA/	in-	.	.	.	.	1E/	-rat	.	1c\	in	.
*	*	*	*	*	*	*	*Xij	*	*	*	*
=68-	=68-	=68-	=68-	=68-	=68-	=68-	=68-	=68-	=68-	=68-	=68-
.	.	.	1A	-ci-	.	.	.	.	.	.	.
!LO:TX:t=P:problem:kreska pseudotaktowa	!	!	!	!	!	!LO:TX:t=P:problem:kreska pseudotaktowa	!	!	!LO:TX:t=P:problem:kreska pseudotaktowa	!	!
2AA/	-prin-	.	.	.	.	2E/	in	.	2c/	prin-	.
2AA/	-ci-	.	1A	-pi-	.	2E/	prin-	.	2c/	-ci-	.
2AA/	-pi-	.	.	.	.	2E/	-ci-	.	2c/	-pi-	.
=69-	=69-	=69-	=69-	=69-	=69-	=69-	=69-	=69-	=69-	=69-	=69-
!	!	!	!LO:TX:t=P:problem:kreska pseudotaktowa	!	!	!	!	!	!LO:TX:t=P:problem:kreska pseudotaktowa	!	!
2D/	-o	.	1A	-o	.	2F/	-pi-	.	1d	-o	.
!LO:TX:t=P:problem:kreska pseudotaktowa	!	!	!	!	!	!LO:TX:t=P:problem:kreska pseudotaktowa	!	!	!	!	!
2.F\	et	.	.	.	.	2.A/	-o	.	.	.	.
.	.	.	1A	et	.	.	.	.	1f	et	.
4E\	.	.	.	.	.	4G/	et	.	.	.	.
4D/	.	.	.	.	.	4F/	.	.	.	.	.
!	!	!	!	!	!	!LO:TX:t=P:problem:kreska pseudotaktowa	!	!	!	!	!
4C/	.	.	.	.	.	4E/	.	.	.	.	.
=70-	=70-	=70-	=70-	=70-	=70-	=70-	=70-	=70-	=70-	=70-	=70-
*	*	*	*lig	*	*	*	*	*	*	*	*
1D	.	.	1A	nunc	.	1F	.	.	2f\	nunc	.
.	.	.	.	.	.	.	.	.	4e\	.	.
!	!	!	!	!	!	!	!	!	!LO:TX:t=P:problem:kreska pseudotaktowa	!	!
.	.	.	.	.	.	.	.	.	4d\	.	.
!LO:TX:t=P:problem:kreska pseudotaktowa	!	!	!LO:TX:t=P:problem:kreska pseudotaktowa	!	!	!	!	!	!	!	!
1C	nunc	.	1c	.	.	2G/	.	.	2e\	.	.
!	!	!	!	!	!	!LO:TX:t=P:problem:kreska pseudotaktowa	!	!	!LO:TX:t=P:problem:kreska pseudotaktowa	!	!
.	.	.	.	.	.	2E/	.	.	2g\	.	.
*	*	*	*Xlig	*	*	*	*	*	*	*	*
=71-	=71-	=71-	=71-	=71-	=71-	=71-	=71-	=71-	=71-	=71-	=71-
2D/	et	.	1A	et	.	2F/	nunc	.	2f\	et	.
2E\	.	.	.	.	.	2G/	.	.	1e	ſem-	.
*	*	*	*lig	*	*	*	*	*	*	*	*
2.F\	ſem-	.	1A	ſem-	.	4A/	.	.	.	.	.
.	.	.	.	.	.	4F/	.	.	.	.	.
!	!	!	!	!	!	!LO:TX:t=P:problem:kreska pseudotaktowa	!	!	!LO:TX:t=P:problem:kreska pseudotaktowa	!	!
.	.	.	.	.	.	2f\	et	.	2d\	.	.
!LO:TX:t=P:problem:kreska pseudotaktowa	!	!	!	!	!	!	!	!	!	!	!
!LO:SIC:v:custos C	!	!	!	!	!	!	!	!	!	!	!
4E\	.	.	.	.	.	.	.	.	.	.	.
!LO:LB:g=original	!	!	!	!	!	!	!	!	!	!	!
=72-	=72-	=72-	=72-	=72-	=72-	=72-	=72-	=72-	=72-	=72-	=72-
2C/	.	.	1G	.	.	2e\	.	.	2e\	.	.
2D/	.	.	.	.	.	1d	nunc	.	2f\	.	.
*	*	*	*Xlig	*	*	*	*	*	*	*	*
*	*	*	*lig	*	*	*	*	*	*	*	*
1E	.	.	1G	-per	.	.	.	.	1g	.	.
!	!	!	!	!	!	!LO:TX:t=P:problem:kreska pseudotaktowa	!	!	!	!	!
.	.	.	.	.	.	2c\	et	.	.	.	.
=73-	=73-	=73-	=73-	=73-	=73-	=73-	=73-	=73-	=73-	=73-	=73-
!LO:TX:t=P:problem:kreska pseudotaktowa	!	!	!LO:TX:t=P:problem:kreska pseudotaktowa	!	!	!	!	!	!LO:TX:t=P:problem:kreska pseudotaktowa	!	!
1D	per	.	1A	.	.	1d	S(em)-	.	1f	-p(er)	.
*	*	*	*Xlig	*	*	*	*	*	*	*	*
*	*	*	*lig	*	*	*	*	*	*	*	*
2r	.	.	1G	Et	.	1B	.	.	1d	et	.
2GG/	Et	.	.	.	.	.	.	.	.	.	.
=74-	=74-	=74-	=74-	=74-	=74-	=74-	=74-	=74-	=74-	=74-	=74-
!	!	!	!	!	!	!LO:TX:t=P:problem:kreska pseudotaktowa	!	!	!	!	!
1D	in	.	1F	.	.	1A	-p(er)	.	2.d\	in	.
!	!	!	!	!	!	!	!	!	!LO:TX:t=P:problem:kreska pseudotaktowa	!	!
.	.	.	.	.	.	.	.	.	4c/	.	.
*	*	*	*Xlig	*	*	*	*	*	*	*	*
*	*	*	*lig	*	*	*	*	*	*	*	*
2.E\	ſae-	.	1G	in	.	2.G/	et	.	2B/	.	.
.	.	.	.	.	.	.	.	.	2.e\	ſae-	.
!LO:TX:t=P:problem:kreska pseudotaktowa	!	!	!	!	!	!	!	!	!	!	!
4D/	.	.	.	.	.	4F/	in	.	.	.	.
=75-	=75-	=75-	=75-	=75-	=75-	=75-	=75-	=75-	=75-	=75-	=75-
!	!	!	!LO:TX:t=P:problem:kreska pseudotaktowa	!	!	!	!	!	!	!	!
2C/	.	.	1A	.	.	2E/	ſae-	.	.	.	.
!	!	!	!	!	!	!	!	!	!LO:TX:t=P:problem:kreska pseudotaktowa	!	!
!	!	!	!	!	!	!	!	!	!LO:SIC:v:custos d	!	!
.	.	.	.	.	.	.	.	.	4d\	.	.
!	!	!	!	!	!	!LO:TX:t=P:problem:kreska pseudotaktowa	!	!	!LO:PB:g=original	!	!
2D/	-cu-	.	.	.	.	2F/	.	.	1d	.	.
*	*	*	*Xlig	*	*	*	*	*	*	*	*
!LO:TX:t=P:problem:kreska pseudotaktowa	!	!	!	!	!	!	!	!	!	!	!
1AA	-la	.	1A	ſae-	.	1E	-cu-	.	.	.	.
!	!	!	!	!	!	!	!	!	!LO:TX:t=P:problem:kreska pseudotaktowa	!	!
.	.	.	.	.	.	.	.	.	2c/	-cu-	.
=76-	=76-	=76-	=76-	=76-	=76-	=76-	=76-	=76-	=76-	=76-	=76-
2r	.	.	1A	-cu-	.	2D/	-la	.	2d\	-la	.
!	!	!	!	!	!	!LO:TX:t=P:problem:kreska pseudotaktowa	!	!	!	!	!
2D/	ſae-	.	.	.	.	2d\	ſae-	.	2f\	Sae-	.
!	!	!	!LO:TX:t=P:problem:kreska pseudotaktowa	!	!	!	!	!	!	!	!
2C/	-cu-	.	1A	-la	.	2e\	-cu-	.	2e\	-cu-	.
!LO:TX:t=P:problem:kreska pseudotaktowa	!	!	!	!	!	!	!	!	!LO:TX:t=P:problem:kreska pseudotaktowa	!	!
2D/	-lo-	.	.	.	.	2f\	.	.	2d\	-lo-	.
=77-	=77-	=77-	=77-	=77-	=77-	=77-	=77-	=77-	=77-	=77-	=77-
2AA/	-rum	.	1A	ſae-	.	2e\	-lo-	.	2c/	-rum	.
*	*	*	*	*	*	*	*	*	*	*ij	*
2D/	A-	.	.	.	.	1d	-rum	.	2f\	Sae-	.
!LO:TX:t=P:problem:kreska pseudotaktowa	!	!	!	!	!	!	!	!	!	!	!
*	*	*	*lig	*	*	*	*	*	*	*	*
!	!	!	!	!	!	!	!	!	!LO:TX:t=P:problem:kreska pseudotaktowa	!	!
1AA	-men	.	1A	-cu-	.	.	.	.	1e	.	.
!	!	!	!	!	!	!LO:TX:t=P:problem:kreska pseudotaktowa	!	!	!	!	!
.	.	.	.	.	.	2c\	A-	.	.	.	.
=78-	=78-	=78-	=78-	=78-	=78-	=78-	=78-	=78-	=78-	=78-	=78-
1r	.	.	1B	.	.	2d\	.	.	2d\	-cu-	.
!	!	!	!	!	!	!LO:TX:t=P:problem:kreska pseudotaktowa	!	!	!	!	!
!	!	!	!	!	!	!LO:SIC:v:custos A	!	!	!	!	!
.	.	.	.	.	.	2G/	-men	.	2g\	-la	.
*	*	*	*Xlig	*	*	*	*	*	*	*	*
!	!	!	!	!	!	!LO:PB:g=original	!	!	!	!	!
*	*	*	*lig	*	*	*	*	*	*	*	*
2.AA/	ſae-	.	1c	.	.	4A/	A-	.	2.e\	Sae-	.
.	.	.	.	.	.	4B\	.	.	.	.	.
.	.	.	.	.	.	4c\	.	.	.	.	.
!LO:TX:t=P:problem:kreska pseudotaktowa	!	!	!	!	!	!LO:TX:t=P:problem:kreska pseudotaktowa	!	!	!LO:TX:t=P:problem:kreska pseudotaktowa	!	!
4BB/	-cu-	.	.	.	.	4d\	.	.	4d\	.	.
=79-	=79-	=79-	=79-	=79-	=79-	=79-	=79-	=79-	=79-	=79-	=79-
2C/	-lo-	.	1A	.	.	2e\	.	.	2c/	.	.
!LO:TX:t=P:problem:kreska pseudotaktowa	!	!	!	!	!	!	!	!	!	!	!
2D/	-rum	.	.	.	.	1d	.	.	2f\	-cu-	.
*	*	*	*Xlig	*	*	*	*	*	*	*	*
1E	A-	.	1G	-lo-	.	.	.	.	2g\	-lo-	.
!	!	!	!	!	!	!LO:TX:t=P:problem:kreska pseudotaktowa	!	!	!LO:TX:t=P:problem:kreska pseudotaktowa	!	!
.	.	.	.	.	.	2c\	.	.	2e\	-rum	.
*	*	*	*	*	*	*	*	*	*	*Xij	*
=80-	=80-	=80-	=80-	=80-	=80-	=80-	=80-	=80-	=80-	=80-	=80-
!	!	!	!LO:TX:t=P:problem:kreska pseudotaktowa	!	!	!	!	!	!	!	!
2D/	.	.	1F	-ru(m)	.	2d\	-men	.	2.f\	A-	.
4C/	.	.	.	.	.	2A/	.	.	.	.	.
!LO:TX:t=P:problem:kreska pseudotaktowa	!	!	!	!	!	!	!	!	!	!	!
4BB/	.	.	.	.	.	.	.	.	8e\L	.	.
!	!	!	!	!	!	!	!	!	!LO:TX:t=P:problem:kreska pseudotaktowa	!	!
.	.	.	.	.	.	.	.	.	8d\J	.	.
*	*	*	*lig	*	*	*	*	*	*	*	*
!	!	!	!	!	!	!	!	!	!LO:TX:t=P:problem:# above	!	!
2AA/	.	.	1F	A-	.	0A	A-	.	2c#X/	.	.
!LO:TX:t=P:problem:kreska pseudotaktowa	!	!	!	!	!	!	!	!	!	!	!
2FF/	.	.	.	.	.	.	.	.	1d\	.	.
=81-	=81-	=81-	=81-	=81-	=81-	=81-	=81-	=81-	=81-	=81-	=81-
2GG/	.	.	1E	.	.	.	.	.	.	.	.
2AA/	.	.	.	.	.	.	.	.	2c#/	.	.
*	*	*	*Xlig	*	*	*	*	*	*	*	*
!	!	!	!LO:TX:t=P:problem:kreska pseudotaktowa	!	!	!	!	!	!LO:TX:b:t=Rorate Ut \nSupra.	!	!
0Dl;	-men.	.	0Dl;	-men.	.	0Al;	-men.	.	0dl;	-men	.
==	==	==	==	==	==	==	==	==	==	==	==
*-	*-	*-	*-	*-	*-	*-	*-	*-	*-	*-	*-
!!!system-decoration: [s1,s2,s3,s4]
!!!RDF**kern: < = below
!!!RDF**kern: l = terminal long
!!!ENC: Marta Lawrence
!!!END: 2021-03-07
!!!ENC: Kamil Watkowski
!!!END: 2021-02-24
